X:1
T:The Pop Corn Behavior
L:1/8
M:4/4
K:Amin
|:aeef ecAc|ABBc BAGE|~E2AE cEAE|ABBc B^G E2|
aeef ecAc|ABBc BAGE|DFAc dBAF|[1 E^GBc ABce:|[2 ECDB, A,B,CD||
|:EA,A,E FA,A,F|EA,A,E DA,A,G,|A,B,CD EDCD|~E2 AE DEFD|
EA,A,E FA,A,F|^FA,A,F =FA, ~A,2|DFAc dBAF|[1 ECDB, A,B,CD:|[2 E^GBc ABce||
